X: 1579
T: Wicklow Hornpipe
R:hornpipe
N:"Collected by Ennis"
B:O'Neill's 1579
Z:Transcribed by Michael Hogan
M:C|
L:1/8
K:D
(FG) | A>BAF DEFG | AGFD c2 (3ABc | defd cAGF | (D>G {A}(3GFG D)>G Gz |
A>BAF DEFG | AGFD c2 (3ABc | defd (c<A)GF |  F2 D2 D2 :|
|: z2 | f {g}fd cAGF | D2 g2 g2 af | d3e fdec | Addc Ad d z |
efec ABcA | dcAB c2 (3ABc | defd (c<AAG | F2 D2 D2 :||


